X: 109
T:Ye Jacobites By Name
G:song in slow march tempo
M:4/4
L:1/8
Q:1/4=100
K:AMin
% dorian/minor hexatonic
E|A>B AG E2 EE|c2  BA B3
E|A>B AG ED EG|A4     z3
c|c>B cd e3  e|d>c Bc d3
d|eA  AG E2 EE|c2  BA B3
d|e>A AG ED EG|A4     z3|]

